svg/u1f91b_1f3fe.svg

<svg viewBox="0 0 128 128" xmlns="http://www.w3.org/2000/svg">
  <radialGradient id="a" cx="50.125" cy="41.972" gradientTransform="matrix(1.0127 0 0 1.0127 -11.361 -.5322)" gradientUnits="userSpaceOnUse" r="108.8">
    <stop offset="0" stop-color="#A56C43"/>
    <stop offset="1" stop-color="#8D5738"/>
  </radialGradient>
  <path d="m47.04 108.36c-4.82 0-9.94-2.72-11.34-4.59-1.95-2.6-2.31-6.69-2.31-6.73-0.04-0.42-0.25-0.81-0.58-1.07-0.26-0.2-0.58-0.31-0.91-0.31-0.09 0-0.18 0.01-0.27 0.03l-15.99 2.97c-4.82-0.09-8.79-3.89-9.07-8.72l-1.07-43.12c0.62-11.62 8.98-15.29 37.34-21.83 14.31-3.3 42.68-5.34 60.76-5.34 4.66 0 8.49 0.14 11.09 0.4 3.44 0.35 5.54 3.37 6.07 6.07l1.74 31.77c0 6.5-2.25 14.19-8.6 14.2 0 0-0.82-0.04-2.05-0.04-3.99 0-9.4 0.36-12.56 2.07-9.15 4.95-13.04 9.14-17.16 13.58-2 2.16-4.07 4.38-6.87 6.87-6.15 5.45-17.42 10.76-25.29 13.38-0.86 0.26-1.85 0.41-2.93 0.41z" fill="url(#a)"/>
  <path d="m103.6 21.14c4.61 0 8.39 0.14 10.94 0.39 2.63 0.26 4.27 2.62 4.72 4.77l1.74 31.58c-0.01 3.65-0.7 6.94-1.95 9.25-1.64 3.05-3.68 3.44-5.1 3.45-0.25-0.01-1.02-0.04-2.1-0.04-4.16 0-9.85 0.39-13.28 2.25-9.37 5.07-13.34 9.35-17.54 13.88-1.98 2.13-4.02 4.33-6.77 6.77-6 5.31-17.04 10.5-24.77 13.08-0.7 0.23-1.53 0.35-2.45 0.35-4.15 0-8.93-2.38-10.14-3.99-1.4-1.86-1.93-4.93-2.02-5.94-0.07-0.85-0.49-1.63-1.17-2.14-0.53-0.4-1.17-0.62-1.83-0.62-0.18 0-0.37 0.02-0.55 0.05l-15.84 2.94c-3.96-0.15-7.2-3.28-7.45-7.25l-1.04-43.08c0.51-9.44 5.4-13.29 36.18-20.39 14.2-3.28 42.42-5.31 60.42-5.31m0-3c-17.72 0-46.21 1.95-61.1 5.38-31.18 7.2-37.91 11.56-38.5 23.28l1.06 43.23c0.33 5.67 5.01 10.11 10.69 10.13l16.14-2.99s0.36 4.51 2.61 7.51c1.82 2.42 7.51 5.19 12.54 5.19 1.19 0 2.35-0.16 3.4-0.51 7.16-2.39 19.04-7.68 25.81-13.68 8.75-7.76 10.48-13.08 23.75-20.26 3.05-1.65 8.79-1.89 11.85-1.89 1.24 0 2.04 0.04 2.04 0.04 7.33 0 10.11-8.14 10.11-15.78l-1.75-31.86c-0.64-3.53-3.35-6.98-7.41-7.38-2.72-0.28-6.61-0.41-11.24-0.41z" fill="#875334"/>
  <path d="m27.83 68.53c7.1-4.4 26.79-16.52 28.79-3.3 1.21 8.01-7.24 15.94-12.8 20.52-4.15 3.42-8.88 6.15-13.39 9.09-1.48 0.97 3.11 2.95 4.54 1.89 3.96-2.95 8.78-6.79 13.72-11.6 5.9-5.75 13.26-14.21 9.93-23.07-4.87-12.95-25.16-0.12-31.64 5.49-1.35 1.19 0.85 0.98 0.85 0.98z" fill="#875334"/>
  <path d="m53.42 56.08c3.85 4.33 6.74 10.11 1.44 19.57-1.1 1.97-0.44 2.54 0.85 0.74 7.98-11.16 6.21-17.9-1.17-22.72-5.74-3.74-10.43-2.57-10.43-2.57s5.83 1.07 9.31 4.98z" fill="#875334"/>
</svg>

<svg viewBox="0 0 128 128" xmlns="http://www.w3.org/2000/svg">
  <defs>
    <radialGradient id="a" cx="38.906475" cy="41.446474" gradientTransform="matrix(1.0127 0 0 1.0127 0 0)" gradientUnits="userSpaceOnUse" r="108.8">
      <stop offset="0" stop-color="#A56C43"/>
      <stop offset="1" stop-color="#8D5738"/>
    </radialGradient>
  </defs>
  <path d="M47.04,108.36 C42.22,108.36 37.1,105.64 35.7,103.77 C33.75,101.17 33.39,97.08 33.39,97.04 C33.35,96.62 33.14,96.23 32.81,95.97 C32.55,95.77 32.23,95.66 31.9,95.66 C31.81,95.66 31.72,95.67 31.63,95.69 L15.64,98.66 C10.82,98.57 6.85,94.77 6.57,89.94 L5.5,46.82 C6.12,35.2 14.48,31.53 42.84,24.99 C57.15,21.69 85.52,19.65 103.6,19.65 C108.26,19.65 112.09,19.79 114.69,20.05 C118.13,20.4 120.23,23.42 120.76,26.12 L122.5,57.89 C122.5,64.39 120.25,72.08 113.9,72.09 C113.9,72.09 113.08,72.05 111.85,72.05 C107.86,72.05 102.45,72.41 99.29,74.12 C90.14,79.07 86.25,83.26 82.13,87.7 C80.13,89.86 78.06,92.08 75.26,94.57 C69.11,100.02 57.84,105.33 49.97,107.95 C49.11,108.21 48.12,108.36 47.04,108.36 Z" fill="url(#a)"/>
  <path d="M103.6,21.14 C108.21,21.14 111.99,21.28 114.54,21.53 C117.17,21.79 118.81,24.15 119.26,26.3 L121,57.88 C120.99,61.53 120.3,64.82 119.05,67.13 C117.41,70.18 115.37,70.57 113.95,70.58 C113.7,70.57 112.93,70.54 111.85,70.54 C107.69,70.54 102,70.93 98.57,72.79 C89.2,77.86 85.23,82.14 81.03,86.67 C79.05,88.8 77.01,91 74.26,93.44 C68.26,98.75 57.22,103.94 49.49,106.52 C48.79,106.75 47.96,106.87 47.04,106.87 C42.89,106.87 38.11,104.49 36.9,102.88 C35.5,101.02 34.97,97.95 34.88,96.94 C34.81,96.09 34.39,95.31 33.71,94.8 C33.18,94.4 32.54,94.18 31.88,94.18 C31.7,94.18 31.51,94.2 31.33,94.23 L15.49,97.17 C11.53,97.02 8.29,93.89 8.04,89.92 L7,46.84 C7.51,37.4 12.4,33.55 43.18,26.45 C57.38,23.17 85.6,21.14 103.6,21.14 M103.6,18.14 C85.88,18.14 57.39,20.09 42.5,23.52 C11.32,30.72 4.59,35.08 4,46.8 L5.06,90.03 C5.39,95.7 10.07,100.14 15.75,100.16 L31.89,97.17 C31.89,97.17 32.25,101.68 34.5,104.68 C36.32,107.1 42.01,109.87 47.04,109.87 C48.23,109.87 49.39,109.71 50.44,109.36 C57.6,106.97 69.48,101.68 76.25,95.68 C85,87.92 86.73,82.6 100,75.42 C103.05,73.77 108.79,73.53 111.85,73.53 C113.09,73.53 113.89,73.57 113.89,73.57 C121.22,73.57 124,65.43 124,57.79 L122.25,25.93 C121.61,22.4 118.9,18.95 114.84,18.55 C112.12,18.27 108.23,18.14 103.6,18.14 Z" fill="#875334"/>
  <path d="M27.83,68.53 C34.93,64.13 54.62,52.01 56.62,65.23 C57.83,73.24 49.38,81.17 43.82,85.75 C39.67,89.17 34.94,91.9 30.43,94.84 C28.95,95.81 33.54,97.79 34.97,96.73 C38.93,93.78 43.75,89.94 48.69,85.13 C54.59,79.38 61.95,70.92 58.62,62.06 C53.75,49.11 33.46,61.94 26.98,67.55 C25.63,68.74 27.83,68.53 27.83,68.53 Z" fill="#875334"/>
  <path d="M53.42,56.08 C57.27,60.41 60.16,66.19 54.86,75.65 C53.76,77.62 54.42,78.19 55.71,76.39 C63.69,65.23 61.92,58.49 54.54,53.67 C48.8,49.93 44.11,51.1 44.11,51.1 C44.11,51.1 49.94,52.17 53.42,56.08 Z" fill="#875334"/>
</svg>
